icon-themes/sifr_svg/cmd/hu/lc_bold.svg

<svg viewBox="0 0 24 24" xmlns="http://www.w3.org/2000/svg"><path d="m17.126154 3c-2.602428 0-5.178832 2.03265-5.716797 4.5l-.78125 3.5h-.78125c-.86159 0-1.6910944.669001-1.84375 1.5-.1533305.830991.41966 1.5 1.28125 1.5h.6875l-.53125 2.5c-.1845701.84614-1.0137858 1.5-1.90625 1.5-.8924361 0-1.4657452-.65386-1.28125-1.5l.34375-1.5h-1.59375c-.7872259-.000938-1.6858531.498216-1.9042968 1.5-.5379737 2.46735 1.1768961 4.5 3.7792968 4.5 2.6024287 0 5.178824-2.03265 5.716797-4.5l.5625-2.5h1c.861562 0 1.691094-.669009 1.84375-1.5.15334-.830999-.419688-1.5-1.28125-1.5h-.90625l.75-3.5c.184495-.8461406 1.013794-1.5 1.90625-1.5.892445 0 1.434486.6538594 1.25 1.5l-.3125 1.5h1.59375c.787226.0009375 1.685853-.4982062 1.904297-1.5.537964-2.46735-1.176896-4.5-3.779297-4.5z" fill="#555753"/></svg>

<svg xmlns="http://www.w3.org/2000/svg" viewBox="0 0 24 24">
  <path
     style="fill:#555753"
     d="m 17.126154,3 c -2.602428,0 -5.178832,2.03265 -5.716797,4.5 l -0.78125,3.5 h -0.78125 c -0.86159,0 -1.6910944,0.669001 -1.84375,1.5 -0.1533305,0.830991 0.41966,1.5 1.28125,1.5 h 0.6875 l -0.53125,2.5 C 9.2560369,17.34614 8.4268212,18 7.534357,18 6.6419209,18 6.0686118,17.34614 6.253107,16.5 L 6.596857,15 H 5.003107 C 4.2158811,14.999062 3.3172539,15.498216 3.0988102,16.5 2.5608365,18.96735 4.2757063,21 6.878107,21 c 2.6024287,0 5.178824,-2.03265 5.716797,-4.5 l 0.5625,-2.5 h 1 c 0.861562,0 1.691094,-0.669009 1.84375,-1.5 0.15334,-0.830999 -0.419688,-1.5 -1.28125,-1.5 h -0.90625 l 0.75,-3.5 C 14.748149,6.6538594 15.577448,6 16.469904,6 c 0.892445,0 1.434486,0.6538594 1.25,1.5 l -0.3125,1.5 h 1.59375 C 19.78838,9.0009375 20.687007,8.5017938 20.905451,7.5 21.443415,5.03265 19.728555,3 17.126154,3 Z"
     />
</svg>
